packages/ui-solid/icons/check_16.svg

<svg width="16" height="16" viewBox="0 0 16 16" fill="none" xmlns="http://www.w3.org/2000/svg">
<path fill-rule="evenodd" clip-rule="evenodd" d="M14.1827 3.32544C14.6058 3.75935 14.6058 4.46287 14.1827 4.89679L6.59937 12.6746C6.1763 13.1085 5.49037 13.1085 5.0673 12.6746L1.8173 9.34123C1.39423 8.90731 1.39423 8.2038 1.8173 7.76988C2.24037 7.33597 2.9263 7.33597 3.34937 7.76988L5.83333 10.3175L12.6506 3.32544C13.0737 2.89152 13.7596 2.89152 14.1827 3.32544Z" fill="#007AFF"/>
</svg>

<svg xmlns="http://www.w3.org/2000/svg" width="16" height="16" fill="none"><path fill="currentColor" fill-rule="evenodd" d="M14.183 3.325a1.13 1.13 0 0 1 0 1.572l-7.584 7.778a1.064 1.064 0 0 1-1.532 0L1.817 9.34a1.13 1.13 0 0 1 0-1.571 1.064 1.064 0 0 1 1.532 0l2.484 2.548 6.818-6.993a1.064 1.064 0 0 1 1.532 0" clip-rule="evenodd"/></svg>
